svg/color/aleo.svg

<svg width="216" height="80" viewBox="0 0 216 80" fill="none" xmlns="http://www.w3.org/2000/svg">
<path d="M73.426 0V8.93824H81.6842V78.8961H90.6045V0H73.426Z" fill="#F5F5F5"/>
<path d="M154.145 51.4216C154.145 32.5518 143.683 21.297 127.604 21.297C111.526 21.297 100.954 32.0007 100.954 50.8687C100.954 69.7367 111.415 80 127.604 80C140.378 80 149.96 72.6061 152.603 62.3447H142.692C140.488 67.0902 135.975 71.2829 127.604 71.2829C116.812 71.2829 111.307 64.4419 110.205 54.6209H154.145V51.4216ZM110.316 46.125C111.636 36.6357 117.364 29.9035 127.604 29.9035C137.845 29.9035 143.242 36.5251 144.564 46.125H110.316Z" fill="#F5F5F5"/>
<path d="M189.272 21.297C173.083 21.297 162.622 32.0007 162.622 50.8687C162.622 69.7367 173.083 80 189.272 80C205.461 80 215.812 70.0684 215.812 50.8687C215.812 31.669 205.351 21.297 189.272 21.297ZM189.272 71.5041C177.709 71.5041 171.432 62.4553 171.432 50.76C171.432 39.0647 177.709 29.6842 189.272 29.6842C200.836 29.6842 207.003 38.8436 207.003 50.76C207.003 62.6764 200.946 71.5041 189.272 71.5041Z" fill="#F5F5F5"/>
<path d="M46.5565 0H28.3849L12.6134 46.125H22.2179L34.9933 8.49593H39.6189L52.3925 46.125H22.2179L19.2457 54.6209H55.2561L63.5143 78.8961H73.426L46.5565 0Z" fill="#F5F5F5"/>
<path d="M1.40508 78.8961H10.9857L19.2457 54.6209L9.7074 54.6209L1.40508 78.8961Z" fill="#F5F5F5"/>
<path d="M3.0935 46.125L0.1875 54.6209H9.7074L12.6134 46.125H3.0935Z" fill="#F5F5F5"/>
</svg>

<svg xmlns="http://www.w3.org/2000/svg" width="216" height="80" fill="none" viewBox="0 0 216 80"><path fill="#F5F5F5" d="M73.426 0v8.938h8.258v69.958h8.92V0zm80.719 51.422c0-18.87-10.462-30.125-26.541-30.125-16.078 0-26.65 10.704-26.65 29.572S111.415 80 127.604 80c12.774 0 22.356-7.394 24.999-17.655h-9.911c-2.204 4.745-6.717 8.938-15.088 8.938-10.792 0-16.297-6.841-17.399-16.662h43.94zm-43.829-5.297c1.32-9.49 7.048-16.221 17.288-16.221s15.638 6.621 16.96 16.221zm78.956-24.828c-16.189 0-26.65 10.704-26.65 29.572S173.083 80 189.272 80s26.54-9.932 26.54-29.131c0-19.2-10.461-29.572-26.54-29.572m0 50.207c-11.563 0-17.84-9.049-17.84-20.744s6.277-21.076 17.84-21.076c11.564 0 17.731 9.16 17.731 21.076s-6.057 20.744-17.731 20.744M46.557 0H28.385L12.613 46.125h9.605l12.775-37.63h4.626l12.773 37.63H22.219l-2.972 8.496h36.01l8.258 24.275h9.912zM1.405 78.896h9.58l8.26-24.275H9.708zm1.689-32.771L.188 54.621h9.52l2.905-8.496z"/></svg>
